X:1
T:Title
%%score ( 1 2 ) { 3 | 4 }
L:1/8
Q:1/4=100
M:6/8
K:F
V:1 treble nm="Grand Piano, Soprano"
V:2 treble 
V:3 treble nm="Choir Pad, The Christmas Stars Are Shining"
V:4 bass 
V:1
 [FA] [Fc]2 [FA] [Dc]2 | z A2 z3 | [EG] [FA]2 [FA] [DG]2 | [DF] [EG]2- [EG]2- [EG]/ z/ | %4
w: By~F.~W.~Dawkins * * *||||
 [FA] [Fc]2 [FA] [^Fc]2 | [^Fd] [G=B]2 [=FG] [Ec]2 | [FA] [FA]2 [FG] [FA]2 | %7
w: |||
 [F=B] [Ec]2- [Ec]2- [Ec]/ z/ | [Ec] [Fc]2 [Fc] [Ee]2 | [Ed] [Fc]2- [Fc] [DB]2 | %10
w: |||
 [EB] [FA]2 [FA] [Fd]2 | [Fd] [EG]2- [EG]2- [EG]/ z/ | A [Ac]2 [GB] [EA]2 | [EG] F2 D [CF]2 | %14
w: ||||
 [EG] [FA]2 [FB] [EG]2 | F [CF]2- [CF]3- | [CF]3 z3 |] %17
w: |||
V:2
 x6 | [DB] E2- [EG-]/G/ F2 | x6 | x6 | x6 | x6 | x6 | x6 | x6 | x6 | x6 | x6 | x6 | x6 | x6 | x6 | %16
 x6 |] %17
V:3
 C C2 C D2 | G, C2 B, A,2 | C C2 C =B,2 | =B, C2- C2- C/ z/ | C C2 C D2 | D D2 =B, C2 | %6
 C C2 =B, C2 | D C2- C2- C/ z/ | C C2[K:bass] A, B,2 | B, C2 A, B,2 | C C2 C C2 | %11
 =B, C2- C2- C/ z/ | C _E2 D C2 | C C2 B, A,2 | C C2 D[K:bass] B,2 | A, A,2- A,3- | A,3 z3 |] %17
V:4
 F, A,2 F, B,,2 | B,, C,2- C,/ z/ F,2 | C, F,2 E, D,2 | G, C,2- C,2- C,/ z/ | F, A,2 F, A,2 | %5
 A, G,2 G, A,2 | F, G,2 G, G,2 | G, C,2- C,2- C,/ z/ | B, A,2 F, G,2 | G, A,2 F, G,2 | %10
 G, F,2 E, D,2 | G, C,2- C,2- C,/ z/ | F, ^F,2 .G,3 | B, A,2 z3 | C, F,2 B,, C,2 | F, F,2- F,3- | %16
 F,3 z3 |] %17

